assets/img/social/twitter.svg

<svg width="31" height="31" viewBox="0 0 31 31" fill="none" xmlns="http://www.w3.org/2000/svg">
<circle cx="15.5" cy="15.5" r="15.5" fill="#11AAED"/>
<g clip-path="url(#clip0)">
<path d="M28 8.55705C27.117 8.94905 26.168 9.21305 25.172 9.33205C26.189 8.72305 26.97 7.75805 27.337 6.60805C26.386 7.17205 25.332 7.58205 24.21 7.80305C23.313 6.84605 22.032 6.24805 20.616 6.24805C17.437 6.24805 15.101 9.21405 15.819 12.293C11.728 12.088 8.1 10.128 5.671 7.14905C4.381 9.36205 5.002 12.257 7.194 13.723C6.388 13.697 5.628 13.476 4.965 13.107C4.911 15.388 6.546 17.522 8.914 17.997C8.221 18.185 7.462 18.229 6.69 18.081C7.316 20.037 9.134 21.46 11.29 21.5C9.22 23.123 6.612 23.848 4 23.54C6.179 24.937 8.768 25.752 11.548 25.752C20.69 25.752 25.855 18.031 25.543 11.106C26.505 10.411 27.34 9.54405 28 8.55705V8.55705Z" fill="white"/>
</g>
<defs>
<clipPath id="clip0">
<rect x="4" y="4" width="24" height="24" fill="white"/>
</clipPath>
</defs>
</svg>

<svg width="31" height="31" fill="none" xmlns="http://www.w3.org/2000/svg"><circle cx="15.5" cy="15.5" r="15.5" fill="#11AAED"/><g clip-path="url(#prefix__clip0)"><path d="M28 8.557a9.83 9.83 0 01-2.828.775 4.932 4.932 0 002.165-2.724 9.864 9.864 0 01-3.127 1.195 4.916 4.916 0 00-3.594-1.555c-3.179 0-5.515 2.966-4.797 6.045A13.978 13.978 0 015.671 7.149a4.93 4.93 0 001.523 6.574 4.903 4.903 0 01-2.229-.616c-.054 2.281 1.581 4.415 3.949 4.89a4.935 4.935 0 01-2.224.084 4.928 4.928 0 004.6 3.419A9.9 9.9 0 014 23.54a13.94 13.94 0 007.548 2.212c9.142 0 14.307-7.721 13.995-14.646A10.024 10.024 0 0028 8.557z" fill="#fff"/></g><defs><clipPath id="prefix__clip0"><path fill="#fff" d="M4 4h24v24H4z"/></clipPath></defs></svg>
